public/instagram.svg

<svg width="20" height="20" viewBox="0 0 20 20" fill="none" xmlns="http://www.w3.org/2000/svg">
<path d="M10.0001 6.8753C8.2798 6.8753 6.8759 8.27921 6.8759 9.99952C6.8759 11.7198 8.2798 13.1237 10.0001 13.1237C11.7204 13.1237 13.1243 11.7198 13.1243 9.99952C13.1243 8.27921 11.7204 6.8753 10.0001 6.8753ZM19.3704 9.99952C19.3704 8.70577 19.3822 7.42374 19.3095 6.13234C19.2368 4.63234 18.8947 3.30109 17.7978 2.20421C16.6986 1.10499 15.3697 0.76515 13.8697 0.692494C12.5759 0.619838 11.2939 0.631557 10.0025 0.631557C8.70871 0.631557 7.42668 0.619838 6.13527 0.692494C4.63527 0.76515 3.30402 1.10734 2.20714 2.20421C1.10792 3.30343 0.76808 4.63234 0.695424 6.13234C0.622767 7.42608 0.634486 8.70812 0.634486 9.99952C0.634486 11.2909 0.622767 12.5753 0.695424 13.8667C0.76808 15.3667 1.11027 16.698 2.20714 17.7948C3.30636 18.894 4.63527 19.2339 6.13527 19.3065C7.42902 19.3792 8.71105 19.3675 10.0025 19.3675C11.2962 19.3675 12.5782 19.3792 13.8697 19.3065C15.3697 19.2339 16.7009 18.8917 17.7978 17.7948C18.897 16.6956 19.2368 15.3667 19.3095 13.8667C19.3845 12.5753 19.3704 11.2933 19.3704 9.99952ZM10.0001 14.8066C7.33996 14.8066 5.19308 12.6597 5.19308 9.99952C5.19308 7.33937 7.33996 5.19249 10.0001 5.19249C12.6603 5.19249 14.8072 7.33937 14.8072 9.99952C14.8072 12.6597 12.6603 14.8066 10.0001 14.8066ZM15.004 6.11827C14.3829 6.11827 13.8814 5.61671 13.8814 4.99562C13.8814 4.37452 14.3829 3.87296 15.004 3.87296C15.6251 3.87296 16.1267 4.37452 16.1267 4.99562C16.1269 5.1431 16.098 5.28917 16.0416 5.42546C15.9853 5.56175 15.9026 5.68558 15.7983 5.78987C15.694 5.89415 15.5702 5.97684 15.4339 6.03319C15.2976 6.08955 15.1515 6.11846 15.004 6.11827Z" fill="#F1F5F8"/>
</svg>

<svg width="20" height="20" fill="none" xmlns="http://www.w3.org/2000/svg"><path d="M10 6.875A3.13 3.13 0 0 0 6.876 10 3.13 3.13 0 0 0 10 13.124 3.13 3.13 0 0 0 13.124 10 3.13 3.13 0 0 0 10 6.875ZM19.37 10c0-1.294.012-2.576-.06-3.868-.073-1.5-.415-2.83-1.512-3.928C16.698 1.105 15.37.765 13.87.692c-1.294-.072-2.576-.06-3.867-.06-1.294 0-2.576-.012-3.868.06-1.5.073-2.831.415-3.928 1.512-1.1 1.1-1.439 2.428-1.512 3.928C.623 7.426.635 8.708.635 10c0 1.29-.012 2.575.06 3.867.073 1.5.415 2.831 1.512 3.928 1.1 1.099 2.428 1.439 3.928 1.511 1.294.073 2.576.061 3.867.061 1.294 0 2.576.012 3.868-.06 1.5-.073 2.83-.415 3.928-1.512 1.099-1.1 1.439-2.428 1.512-3.928.075-1.292.06-2.574.06-3.867ZM10 14.807A4.8 4.8 0 0 1 5.193 10 4.8 4.8 0 0 1 10 5.192 4.8 4.8 0 0 1 14.807 10 4.8 4.8 0 0 1 10 14.807Zm5.004-8.689a1.121 1.121 0 0 1-1.123-1.122c0-.621.502-1.123 1.123-1.123a1.121 1.121 0 0 1 .43 2.16 1.121 1.121 0 0 1-.43.085Z" fill="#F1F5F8"/></svg>
